X:1
N: Sugar Candie
N: 8 x 32S 3C (RSCDS Book 26)
T: The Earl of Angus and Arran
C: William Marshall, arr. T. Traub 2-1-2000
M: 4/4
L: 1/8
%
K: Eb
|: B,|"Eb"E<E "Bb"B2 "Cm"G>FE>G|"Fm"A<C"F7"F>E "Bb"D<B,C>D|"Eb"E<E "Bb"B2 "Cm"G>FE>G|"Fm"A<C"Bb"F>D "Eb"E2 E :|
B|"Eb"G<BE>B G<BE>d|"Eb"e<EG>E "Bb"D<FF>A|"Eb"G<BE>B G<Be>g|"Fm"f>ed>c "Bb"B2 BG|
"Ab"A<c"Bb"F>A "Eb"G<B"Cm"E>G|"Fm"F>G"Ab"A>G "Bb"FEDB,|"Eb"E<G"Bb"F<A "Eb"G<B"Ab"A<c|"Eb"B<e"Bb"d>f "Eb"e2 e |]
